X: 32691
T: Policeman's Holiday, The
R: jig
M: 6/8
K: Gmajor
|:ge|dBG G,B,D|GBd d^cd|e^cA A,^CE|A^ce gfe|
dBG G,B,D|GBd dB^G|A^ce a1/2a1/2ag|fge d2:|
|:ef|gea fdg|ece dBG|GBd gfe|dBG GBd|
gea fdg|ece dB^G|A^ce a2g|fge d2:|
|:^c=c|B=c^c dbf|agd gfe|dbf agd|g1/2f1/2ed bge|
dbf agd|Bga gdB|A^ce a2g|fge d2:|

